apps/penxle.com/src/assets/icons/pen-fill.svg

<svg fill="currentColor" viewBox="0 0 24 24" xmlns="http://www.w3.org/2000/svg">
  <path
    d="M19 20H5C4.73478 20 4.48043 20.1054 4.29289 20.2929C4.10536 20.4804 4 20.7348 4 21C4 21.2652 4.10536 21.5196 4.29289 21.7071C4.48043 21.8946 4.73478 22 5 22H19C19.2652 22 19.5196 21.8946 19.7071 21.7071C19.8946 21.5196 20 21.2652 20 21C20 20.7348 19.8946 20.4804 19.7071 20.2929C19.5196 20.1054 19.2652 20 19 20Z"
  />
  <path
    d="M5.00005 18.0001H5.09005L9.26005 17.6201C9.71685 17.5746 10.1441 17.3733 10.4701 17.0501L19.4701 8.0501C19.8194 7.68107 20.0082 7.18861 19.995 6.68064C19.9819 6.17267 19.768 5.69061 19.4001 5.3401L16.6601 2.6001C16.3024 2.2642 15.8338 2.07146 15.3434 2.05855C14.8529 2.04565 14.3748 2.21347 14.0001 2.5301L5.00005 11.5301C4.67682 11.8561 4.47556 12.2833 4.43005 12.7401L4.00005 16.9101C3.98658 17.0566 4.00559 17.2042 4.05571 17.3425C4.10584 17.4808 4.18585 17.6063 4.29005 17.7101C4.38349 17.8028 4.49431 17.8761 4.61615 17.9259C4.73798 17.9756 4.86845 18.0009 5.00005 18.0001ZM15.2701 4.0001L18.0001 6.7301L16.0001 8.6801L13.3201 6.0001L15.2701 4.0001Z"
  />
</svg>

<svg xmlns="http://www.w3.org/2000/svg" fill="currentColor" viewBox="0 0 24 24">
  <path
    d="M19 20H5a1 1 0 0 0 0 2h14a1 1 0 0 0 0-2ZM5 18h.09l4.17-.38a2 2 0 0 0 1.21-.57l9-9a1.92 1.92 0 0 0-.07-2.71L16.66 2.6A2 2 0 0 0 14 2.53l-9 9a2 2 0 0 0-.57 1.21L4 16.91A1 1 0 0 0 5 18ZM15.27 4 18 6.73l-2 1.95L13.32 6l1.95-2Z"
  />
</svg>
